X: 17486
T: Hill's Fancy
R: hornpipe
M: 4/4
K: Amajor
E2|AEcB A2 c2|AEcB A2 c2|BEdc B2 d2|BcBA GEFG|
AEcB A2 c2|AEcB A2 c2|BcBA GEFG|A2 c2 A2:|
|:ed|cAed c2 e2|cAce aecA|BEdc B2 d2|BcBA GBed|
cAed c2 e2|cAce aecA|BcBA GEFG|A2 c2 A2:|

